packages/ffe-icons/icons/open/300/sm/auto_awesome_mosaic.svg

<svg xmlns="http://www.w3.org/2000/svg" height="20" viewBox="0 -960 960 960" width="20"><path d="M444-164.001H228.309q-26.308 0-45.308-19t-19-45.308v-503.382q0-27.008 19-45.658 19-18.65 45.308-18.65H444v631.998ZM392.001-216v-528H228.309q-5.385 0-8.847 3.462-3.462 3.462-3.462 8.847v503.382q0 5.385 3.462 8.847 3.462 3.462 8.847 3.462h163.692ZM516-516v-279.999h215.691q27.008 0 45.658 18.65 18.65 18.65 18.65 45.658V-516H516Zm51.999-51.999H744v-163.692q0-5.385-3.462-8.847-3.462-3.462-8.847-3.462H567.999v176.001ZM516-164.001V-444h279.999v215.691q0 26.308-18.65 45.308t-45.658 19H516ZM569.999-216h161.692q5.385 0 8.847-3.462 3.462-3.462 3.462-8.847v-162.692H569.999V-216ZM391.001-480Zm176.998-87.999Zm2 176.998Z"/></svg>

<svg xmlns="http://www.w3.org/2000/svg" height="20" viewBox="0 -960 960 960" width="20"><path d="M444-164H228.31Q202-164 183-183q-19-19-19-45.31v-503.38q0-27.01 19-45.66Q202-796 228.31-796H444v632Zm-52-52v-528H228.31q-5.39 0-8.85 3.46t-3.46 8.85v503.38q0 5.39 3.46 8.85t8.85 3.46H392Zm124-300v-280h215.69q27.01 0 45.66 18.65Q796-758.7 796-731.69V-516H516Zm52-52h176v-163.69q0-5.39-3.46-8.85t-8.85-3.46H568v176Zm-52 404v-280h280v215.69Q796-202 777.35-183q-18.65 19-45.66 19H516Zm54-52h161.69q5.39 0 8.85-3.46t3.46-8.85V-391H570v175ZM391-480Zm177-88Zm2 177Z"/></svg>
